icons/shield_us_fl_turnpike.svg

<svg width="20" height="20" xmlns="http://www.w3.org/2000/svg">
 <rect style="fill:#006747;fill-rule:evenodd;stroke:#fff;stroke-width:1;stroke-linecap:square;stroke-linejoin:round;stroke-miterlimit:4;stroke-dasharray:none" width="19" height="19" x=".5" y=".5" ry="1.5" rx="1.5"/>
 <path d="M 7.37739,2.4683353 2.0788771,2.4953473 C 2.0075393,2.9921423 2.3554649,3.0813037 2.4627077,3.421701 2.323842,3.6250806 2.5591836,4.0102209 2.30165,4.0933831 2.7540339,4.1166631 2.9076768,3.1128869 3.1324186,3.7549051 2.6393811,4.093861 3.4826164,3.9183461 3.7148674,3.9615676 4.2037823,4.0967097 4.2825092,3.467173 4.8018743,3.7285735 4.9380762,4.1751479 5.6261753,4.1841401 5.9166599,4.6192696 6.2338341,4.3348014 6.1522867,5.173401 6.6315168,5.0272082 6.6309462,5.2386439 7.5364575,6.2060236 7.1243844,5.5102603 7.5481827,5.5347472 8.3489295,5.3798084 8.7894326,4.9963587 8.973188,4.2389981 9.9466301,4.7623693 10.245149,5.1766599 c 0.03773,0.066814 0.206288,0.1735431 0.304167,0.3730526 0.223725,0.1191717 0.317269,0.5642156 0.684603,0.6385521 -0.106545,0.5666033 1.044159,0.6705234 0.909373,1.3276207 0.388207,0.4675205 -7.68e-4,1.1505758 -0.07965,1.6285002 -0.01129,0.070101 -0.461655,0.7238302 0.0808,0.8668085 0.03833,0.290893 0.462844,0.732824 0.221845,0.794647 0.329256,0.658271 0.427391,1.314857 1.215629,1.452635 -0.108523,0.648082 0.590469,0.973069 0.585131,1.654636 0.01635,0.71412 1.036429,0.246929 1.092096,1.041259 0.06543,0.304858 0.681989,0.74334 0.236966,0.883363 0.0092,0.720359 0.819519,0.03647 1.058179,0.233187 0.588616,-0.209861 0.2258,0.714478 0.08558,0.577687 0.454369,0.05834 0.226956,-0.556936 0.650578,-0.526006 0.335477,-0.449832 -0.224013,-1.141475 0.334175,-1.500272 0.347919,-0.107771 0.130434,-1.126508 0.18774,-1.665905 0.172306,-0.727524 -0.134194,-1.296838 -0.32747,-1.934564 C 17.340081,10.345998 16.99087,10.204405 16.864158,9.5511386 16.306783,8.835871 16.97656,8.0743152 16.200464,7.488016 15.864185,6.8953473 15.512959,6.3137404 15.268955,5.6714948 15.062291,5.0978182 15.040783,4.4432533 14.69876,3.9300876 14.79998,3.7047804 14.641115,3.2767785 14.547269,2.997041 14.157264,3.0549151 13.271132,2.4814761 13.47409,3.3384509 13.680603,3.9085914 12.922703,3.7138066 13.057214,3.3830077 12.194743,3.3776898 11.37278,3.2815049 10.543713,3.1654829 L 8.1042292,3.0733308 C 7.5610526,3.3934388 7.5163657,2.8800635 7.37739,2.4683353 Z m 9.159689,14.2631137 c -0.392278,0.06826 -0.60063,0.410236 -0.100932,0.06189 z m -0.437407,-5.653031 c 0.4694,0.238723 0.820124,0.955122 0.277805,1.215513 0.134587,0.761298 -0.686675,0.04499 -1.045248,-0.132952 -0.164549,-0.519217 0.662606,-0.689426 0.767443,-1.082561 z m -0.148586,5.866887 c -0.335473,0.103524 0.02123,0.404865 0,0 z m -0.186731,0.07991 c -0.285562,0.203523 -1.55367,0.287274 -0.629535,0.274863 0.213016,-0.111351 0.492798,-0.0607 0.629535,-0.274863 z m -1.090903,0.292512 c -0.51011,0.122038 -0.199765,0.355562 0,0 z" style="fill:#fff;fill-opacity:1;fill-rule:evenodd;stroke:#fff;stroke-width:.15767;stroke-linejoin:round;stroke-miterlimit:4;stroke-dasharray:none;stroke-opacity:1"/>
 <path d="m 13.310268,7.1939752 1.63378,1.1254069 0.05354,0.5091074 1.124884,1.7416965 0.428532,0.214365 0.348183,0.750268 0.05355,2.545556" style="fill-opacity:1;fill-rule:evenodd;stroke:#006747;stroke-width:.5;stroke-miterlimit:4;stroke-dasharray:none;fill:none;stroke-opacity:1"/>
</svg>

<svg width="20" height="20" xmlns="http://www.w3.org/2000/svg"><rect style="fill:#006747;fill-rule:evenodd;stroke:#fff;stroke-width:1;stroke-linecap:square;stroke-linejoin:round;stroke-miterlimit:4;stroke-dasharray:none" width="19" height="19" x=".5" y=".5" ry="1.5" rx="1.5"/><path d="m7.377 2.468-5.298.027c-.071.497.276.586.384.927-.14.203.096.588-.161.671.452.024.606-.98.83-.338-.493.339.35.163.583.207.489.135.568-.495 1.087-.233.136.446.824.455 1.115.89.317-.284.235.554.715.408-.001.212.904 1.179.492.483.424.025 1.225-.13 1.665-.514.184-.757 1.158-.234 1.456.18.038.067.206.174.304.374.224.119.318.564.685.638-.107.567 1.044.67.91 1.328.387.467-.001 1.15-.08 1.628-.012.07-.462.724.08.867.039.291.463.733.222.795.33.658.428 1.315 1.216 1.452-.109.649.59.974.585 1.655.016.714 1.036.247 1.092 1.041.066.305.682.744.237.884.01.72.82.036 1.058.233.589-.21.226.714.086.578.454.058.227-.557.65-.526.336-.45-.224-1.142.335-1.5.348-.108.13-1.127.187-1.667.173-.727-.134-1.296-.327-1.934-.145-.676-.494-.818-.62-1.47-.558-.716.112-1.478-.665-2.064-.336-.593-.687-1.174-.931-1.817-.207-.573-.228-1.228-.57-1.74.101-.226-.058-.654-.152-.934-.39.058-1.276-.516-1.073.341.207.57-.551.376-.417.045-.862-.005-1.684-.101-2.513-.218l-2.44-.092c-.543.32-.588-.193-.727-.605Zm9.16 14.263c-.392.069-.6.41-.1.062zm-.437-5.653c.47.24.82.956.277 1.216.135.761-.686.045-1.045-.133-.164-.52.663-.69.768-1.083zm-.149 5.867c-.335.104.021.405 0 0zm-.187.08c-.285.204-1.553.287-.63.275.214-.111.494-.06.63-.275zm-1.09.293c-.51.122-.2.355 0 0z" style="fill:#fff;fill-opacity:1;fill-rule:evenodd;stroke:#fff;stroke-width:.15767;stroke-linejoin:round;stroke-miterlimit:4;stroke-dasharray:none;stroke-opacity:1"/><path d="m13.31 7.194 1.634 1.125.054.51 1.124 1.741.429.215.348.75.054 2.545" style="fill-opacity:1;fill-rule:evenodd;stroke:#006747;stroke-width:.5;stroke-miterlimit:4;stroke-dasharray:none;fill:none;stroke-opacity:1"/></svg>
